images_files/dinosaursVG/triceratops.svg

<svg width="277" height="125" viewBox="0 0 277 125" fill="none" xmlns="http://www.w3.org/2000/svg">
<path d="M36.2476 41.2245L24.254 48.709L2 33.6707L13.0924 53.4215L8.17012 56.1936C6.94534 60.6289 4.49578 69.6519 4.49578 70.2617L8.17012 68.0441L33.8212 63.7474L10.6659 72.4101L6.15963 71.7171L9.97263 77.1919L33.8212 77.8849L54.8273 74.3505L63.3546 74.7663L89.9069 75.6672L95.9672 78.6472M36.2476 41.2245L8.17012 16.1375L45.4682 34.7102M36.2476 41.2245L45.4682 34.7102M45.4682 34.7102L55.3819 42.0561M45.4682 34.7102L14.6869 5.04926C26.4725 11.7946 50.1685 25.3407 50.6677 25.5624C51.1668 25.7842 57.0689 27.6415 59.9575 28.5424L69.2474 27.1564L87.4111 4.35624L89.2829 2C89.2829 2 96.5623 5.74227 98.1568 10.9399C99.7513 16.1375 99.7513 17.177 99.7513 17.177L98.4341 22.8597M55.3819 70.2617L60.8588 62.7079H63.3546L68.4848 64.9255H77.9826L89.2829 46.7686L97.1169 28.5424L98.4341 22.8597M98.4341 22.8597L154.658 12.6031C167.16 10.9399 192.289 7.6134 192.788 7.6134C193.288 7.6134 214.973 15.8603 222.738 23.8299C230.502 31.7995 241.779 49.3682 241.779 49.3682L260.044 88.2108L273 103.665C273 103.665 261.353 101.586 255.46 99.3683C249.567 97.1506 239.376 87.0326 239.376 87.0326L219.618 67.9055L217.261 66.866L212.131 70.5389M212.131 70.5389V66.866M212.131 70.5389L206.099 88.2108V93.9628L214.211 108.1L208.872 121.198H185.717L195.354 111.773L194.175 105.744L185.717 97.0813L183.328 92.5074M171.852 70.5389L179.547 85.27M183.328 92.5074V102.487L179.547 121.198H158.333L166.444 103.665L162.77 88.2108M183.328 92.5074L179.547 85.27M162.77 88.2108L179.547 85.27M162.77 88.2108L142.526 90.9828L124.363 88.2108M124.363 88.2108L136.911 121.198H113.894L111.26 105.744M124.363 88.2108L119.804 87.0326M111.26 105.744L118.331 92.5074L119.804 87.0326M111.26 105.744L108.001 111.773L106.268 123H81.3103L82.2116 114.476C86.0939 107.638 93.9833 93.9628 94.4825 93.9628C94.8597 93.9628 95.4982 85.757 95.9672 78.6472M122.768 76.0137L119.804 87.0326M96.3543 72.4101C96.2527 74.1651 96.1188 76.3489 95.9672 78.6472" stroke="white" stroke-width="3"/>
</svg>

<svg xmlns="http://www.w3.org/2000/svg" width="277" height="125" fill="none" xmlns:v="https://vecta.io/nano"><path d="M36.248 41.225l-11.994 7.485L2 33.671l11.092 19.751-4.922 2.772-3.674 14.068 3.674-2.218 25.651-4.297-23.155 8.663-4.506-.693 3.813 5.475 23.849.693 21.006-3.534 8.527.416 26.552.901 6.06 2.98m-59.72-37.423L8.17 16.138 45.468 34.71m-9.221 6.514l9.221-6.514m0 0l9.914 7.346m-9.914-7.346L14.687 5.049l35.981 20.513c.499.222 6.401 2.079 9.29 2.98l9.29-1.386 18.164-22.8L89.283 2s7.279 3.742 8.874 8.94 1.594 6.237 1.594 6.237l-1.317 5.683M55.382 70.262l5.477-7.554h2.496l5.13 2.218h9.498l11.3-18.157 7.834-18.226 1.317-5.683m0 0l56.224-10.257 38.13-4.99c.5 0 22.185 8.247 29.95 16.216s19.041 25.538 19.041 25.538l18.265 38.843L273 103.665s-11.647-2.079-17.54-4.297-16.084-12.336-16.084-12.336l-19.758-19.127-2.357-1.04-5.13 3.673m0 0v-3.673m0 3.673l-6.032 17.672v5.752l8.112 14.137-5.339 13.098h-23.155l9.637-9.425-1.179-6.029-8.458-8.663-2.389-4.574m-11.476-21.969l7.695 14.731m3.781 7.237v9.98l-3.781 18.711h-21.214l8.111-17.533-3.674-15.454m20.558 4.297l-3.781-7.237m-16.777 2.941l16.777-2.941m-16.777 2.941l-20.244 2.772-18.163-2.772m0 0l12.548 32.987h-23.017l-2.634-15.454m13.103-17.533l-4.559-1.178m-8.544 18.711l7.071-13.237 1.473-5.475m-8.544 18.711l-3.259 6.029L106.268 123H81.31l.901-8.524c3.882-6.838 11.772-20.513 12.271-20.513.377 0 1.016-8.206 1.485-15.316m26.801-2.633l-2.964 11.019M96.354 72.41l-.387 6.237" stroke="#fff" stroke-width="3"/></svg>
